src/icons/svg-colors/prod-2.svg

<svg width="145" height="96" viewBox="0 0 145 96" fill="none" xmlns="http://www.w3.org/2000/svg">
<path fill-rule="evenodd" clip-rule="evenodd" d="M139.667 3H54.3333C53.0447 3 52 4.04467 52 5.33333C52 6.622 53.0447 7.66667 54.3333 7.66667H139.667C140.955 7.66667 142 6.622 142 5.33333C142 4.04467 140.955 3 139.667 3ZM54.3333 0C51.3878 0 49 2.38782 49 5.33333C49 8.27885 51.3878 10.6667 54.3333 10.6667H139.667C142.612 10.6667 145 8.27885 145 5.33333C145 2.38782 142.612 0 139.667 0H54.3333Z" fill="#0BA14B"/>
<path fill-rule="evenodd" clip-rule="evenodd" d="M68.5 63V73.5H142V63H68.5ZM67.5 60C66.3954 60 65.5 60.8954 65.5 62V74.5C65.5 75.6046 66.3954 76.5 67.5 76.5H145V62C145 60.8954 144.105 60 143 60H67.5Z" fill="#0BA14B"/>
<path fill-rule="evenodd" clip-rule="evenodd" d="M64.75 73.5V23.625C64.75 20.9326 62.5674 18.75 59.875 18.75C57.1826 18.75 55 20.9326 55 23.625V73.5H64.75ZM59.875 15.75C55.5258 15.75 52 19.2758 52 23.625V74.5C52 75.6046 52.8954 76.5 54 76.5H67.75V23.625C67.75 19.2758 64.2242 15.75 59.875 15.75Z" fill="#0BA14B"/>
<path fill-rule="evenodd" clip-rule="evenodd" d="M52 77.25V92C52 92.5523 52.4477 93 53 93H141C141.552 93 142 92.5523 142 92V77.25H52ZM51 74.25C49.8954 74.25 49 75.1454 49 76.25V92C49 94.2091 50.7909 96 53 96H141C143.209 96 145 94.2091 145 92V74.25H51Z" fill="#0BA14B"/>
<path fill-rule="evenodd" clip-rule="evenodd" d="M68.833 94.6667V74.6667H71.833V94.6667H68.833Z" fill="#0BA14B"/>
<path fill-rule="evenodd" clip-rule="evenodd" d="M60.3332 86.3333C61.2536 86.3333 61.9998 85.5871 61.9998 84.6667C61.9998 83.7462 61.2536 83 60.3332 83C59.4127 83 58.6665 83.7462 58.6665 84.6667C58.6665 85.5871 59.4127 86.3333 60.3332 86.3333ZM60.3332 89.3333C62.9105 89.3333 64.9998 87.244 64.9998 84.6667C64.9998 82.0893 62.9105 80 60.3332 80C57.7558 80 55.6665 82.0893 55.6665 84.6667C55.6665 87.244 57.7558 89.3333 60.3332 89.3333Z" fill="#0BA14B"/>
<path d="M119.667 81.3333C119.667 82.0697 119.07 82.6667 118.333 82.6667C117.597 82.6667 117 82.0697 117 81.3333C117 80.5969 117.597 80 118.333 80C119.07 80 119.667 80.5969 119.667 81.3333Z" fill="#0BA14B"/>
<path d="M75.6667 68C75.6667 68.7364 75.0697 69.3333 74.3333 69.3333C73.597 69.3333 73 68.7364 73 68C73 67.2636 73.597 66.6667 74.3333 66.6667C75.0697 66.6667 75.6667 67.2636 75.6667 68Z" fill="#0BA14B"/>
<path d="M87.6667 68C87.6667 68.7364 87.0697 69.3333 86.3333 69.3333C85.597 69.3333 85 68.7364 85 68C85 67.2636 85.597 66.6667 86.3333 66.6667C87.0697 66.6667 87.6667 67.2636 87.6667 68Z" fill="#0BA14B"/>
<path d="M99.6667 68C99.6667 68.7364 99.0697 69.3333 98.3333 69.3333C97.597 69.3333 97 68.7364 97 68C97 67.2636 97.597 66.6667 98.3333 66.6667C99.0697 66.6667 99.6667 67.2636 99.6667 68Z" fill="#0BA14B"/>
<path d="M111.667 68C111.667 68.7364 111.07 69.3333 110.333 69.3333C109.597 69.3333 109 68.7364 109 68C109 67.2636 109.597 66.6667 110.333 66.6667C111.07 66.6667 111.667 67.2636 111.667 68Z" fill="#0BA14B"/>
<path d="M123.667 68C123.667 68.7364 123.07 69.3333 122.333 69.3333C121.597 69.3333 121 68.7364 121 68C121 67.2636 121.597 66.6667 122.333 66.6667C123.07 66.6667 123.667 67.2636 123.667 68Z" fill="#0BA14B"/>
<path d="M135.667 68C135.667 68.7364 135.07 69.3333 134.333 69.3333C133.597 69.3333 133 68.7364 133 68C133 67.2636 133.597 66.6667 134.333 66.6667C135.07 66.6667 135.667 67.2636 135.667 68Z" fill="#0BA14B"/>
<path fill-rule="evenodd" clip-rule="evenodd" d="M122.167 81.3333C122.167 80.5049 122.839 79.8333 123.667 79.8333H143.667V82.8333H123.667C122.839 82.8333 122.167 82.1618 122.167 81.3333Z" fill="#0BA14B"/>
<path fill-rule="evenodd" clip-rule="evenodd" d="M59.875 28.5C62.5674 28.5 64.75 26.3174 64.75 23.625C64.75 20.9326 62.5674 18.75 59.875 18.75C57.1826 18.75 55 20.9326 55 23.625C55 26.3174 57.1826 28.5 59.875 28.5ZM59.875 31.5C64.2242 31.5 67.75 27.9742 67.75 23.625C67.75 19.2758 64.2242 15.75 59.875 15.75C55.5258 15.75 52 19.2758 52 23.625C52 27.9742 55.5258 31.5 59.875 31.5Z" fill="#0BA14B"/>
<path d="M61.333 24.1667C61.333 24.9951 60.6614 25.6667 59.833 25.6667C59.0046 25.6667 58.333 24.9951 58.333 24.1667C58.333 23.3382 59.0046 22.6667 59.833 22.6667C60.6614 22.6667 61.333 23.3382 61.333 24.1667Z" fill="#0BA14B"/>
<path fill-rule="evenodd" clip-rule="evenodd" d="M129 22C131.761 22 134 19.7614 134 17C134 14.2386 131.761 12 129 12C126.239 12 124 14.2386 124 17C124 19.7614 126.239 22 129 22ZM129 25C133.418 25 137 21.4183 137 17C137 12.5817 133.418 9 129 9C124.582 9 121 12.5817 121 17C121 21.4183 124.582 25 129 25Z" fill="#0BA14B"/>
<path fill-rule="evenodd" clip-rule="evenodd" d="M97 5.16666C97.8284 5.16666 98.5 5.83824 98.5 6.66666V21.3333H95.5V6.66666C95.5 5.83824 96.1716 5.16666 97 5.16666Z" fill="#0BA14B"/>
<path fill-rule="evenodd" clip-rule="evenodd" d="M123.5 36V22.0833H126.5V36C126.5 37.3807 127.619 38.5 129 38.5C130.381 38.5 131.5 37.3807 131.5 36V22.0833H134.5V36C134.5 39.0376 132.038 41.5 129 41.5C125.962 41.5 123.5 39.0376 123.5 36Z" fill="#0BA14B"/>
<path fill-rule="evenodd" clip-rule="evenodd" d="M132.08 40.3743L121.205 51.6573C119.084 53.858 115.57 53.8904 113.408 51.7291C111.275 49.5955 111.275 46.1365 113.408 44.0029L123.805 33.606L125.927 35.7273L115.53 46.1243C114.568 47.0862 114.568 48.6458 115.53 49.6077C116.504 50.5822 118.089 50.5676 119.045 49.5754L129.92 38.2924L132.08 40.3743Z" fill="#0BA14B"/>
<path fill-rule="evenodd" clip-rule="evenodd" d="M115.394 51.7273L111.394 55.7273C110.808 56.3131 109.859 56.3131 109.273 55.7273C108.687 55.1415 108.687 54.1918 109.273 53.606L113.273 49.606L115.394 51.7273Z" fill="#0BA14B"/>
<path fill-rule="evenodd" clip-rule="evenodd" d="M85.5002 41.953L63.9375 20.3086L66.0628 18.1913L88.5002 40.7137V50.8333H79.0679L65.3004 37.7542L67.3666 35.5792L80.2657 47.8333H85.5002V41.953Z" fill="#0BA14B"/>
<path fill-rule="evenodd" clip-rule="evenodd" d="M90.6061 55.0607L85.9395 50.394L88.0608 48.2727L92.7274 52.9393C93.3132 53.5251 93.3132 54.4749 92.7274 55.0607C92.1417 55.6464 91.1919 55.6464 90.6061 55.0607Z" fill="#0BA14B"/>
<path d="M130.75 17.25C130.75 18.0784 130.078 18.75 129.25 18.75C128.422 18.75 127.75 18.0784 127.75 17.25C127.75 16.4216 128.422 15.75 129.25 15.75C130.078 15.75 130.75 16.4216 130.75 17.25Z" fill="#0BA14B"/>
<path fill-rule="evenodd" clip-rule="evenodd" d="M96.9998 17.8787L103.833 24.712V30.6213L100.727 33.7273C100.141 34.3131 99.1916 34.3131 98.6058 33.7273C98.0201 33.1415 98.0201 32.1918 98.6058 31.606L100.833 29.3787V25.9546L96.9998 22.1213L93.1665 25.9546V29.3787L95.3938 31.606C95.9796 32.1918 95.9796 33.1415 95.3938 33.7273C94.808 34.3131 93.8583 34.3131 93.2725 33.7273L90.1665 30.6213V24.712L96.9998 17.8787Z" fill="#0BA14B"/>
<path d="M34.6289 42.5742V51.75H0C0.375 48.2812 1.5 45 3.375 41.9062C5.25 38.7891 8.95312 34.6641 14.4844 29.5312C18.9375 25.3828 21.668 22.5703 22.6758 21.0938C24.0352 19.0547 24.7148 17.0391 24.7148 15.0469C24.7148 12.8438 24.1172 11.1562 22.9219 9.98438C21.75 8.78906 20.1211 8.19141 18.0352 8.19141C15.9727 8.19141 14.332 8.8125 13.1133 10.0547C11.8945 11.2969 11.1914 13.3594 11.0039 16.2422L1.16016 15.2578C1.74609 9.82031 3.58594 5.91797 6.67969 3.55078C9.77344 1.18359 13.6406 0 18.2812 0C23.3672 0 27.3633 1.37109 30.2695 4.11328C33.1758 6.85547 34.6289 10.2656 34.6289 14.3438C34.6289 16.6641 34.207 18.8789 33.3633 20.9883C32.543 23.0742 31.2305 25.2656 29.4258 27.5625C28.2305 29.0859 26.0742 31.2773 22.957 34.1367C19.8398 36.9961 17.8594 38.8945 17.0156 39.832C16.1953 40.7695 15.5273 41.6836 15.0117 42.5742H34.6289Z" fill="#0BA14B"/>
</svg>

<svg width="145" height="96" viewBox="0 0 145 96" fill="none" xmlns="http://www.w3.org/2000/svg">
    <path fill-rule="evenodd" clip-rule="evenodd" d="M139.667 3H54.333a2.333 2.333 0 0 0 0 4.667h85.334a2.333 2.333 0 0 0 0-4.667zM54.333 0a5.333 5.333 0 0 0 0 10.667h85.334a5.333 5.333 0 0 0 0-10.667H54.333z" fill="#0BA14B"/>
    <path fill-rule="evenodd" clip-rule="evenodd" d="M68.5 63v10.5H142V63H68.5zm-1-3a2 2 0 0 0-2 2v12.5a2 2 0 0 0 2 2H145V62a2 2 0 0 0-2-2H67.5z" fill="#0BA14B"/>
    <path fill-rule="evenodd" clip-rule="evenodd" d="M64.75 73.5V23.625a4.875 4.875 0 1 0-9.75 0V73.5h9.75zm-4.875-57.75A7.875 7.875 0 0 0 52 23.625V74.5a2 2 0 0 0 2 2h13.75V23.625a7.875 7.875 0 0 0-7.875-7.875z" fill="#0BA14B"/>
    <path fill-rule="evenodd" clip-rule="evenodd" d="M52 77.25V92a1 1 0 0 0 1 1h88a1 1 0 0 0 1-1V77.25H52zm-1-3a2 2 0 0 0-2 2V92a4 4 0 0 0 4 4h88a4 4 0 0 0 4-4V74.25H51z" fill="#0BA14B"/>
    <path fill-rule="evenodd" clip-rule="evenodd" d="M68.833 94.667v-20h3v20h-3z" fill="#0BA14B"/>
    <path fill-rule="evenodd" clip-rule="evenodd" d="M60.333 86.333a1.667 1.667 0 1 0 0-3.333 1.667 1.667 0 0 0 0 3.333zm0 3a4.667 4.667 0 1 0 0-9.333 4.667 4.667 0 0 0 0 9.333z" fill="#0BA14B"/>
    <path d="M119.667 81.333a1.334 1.334 0 1 1-2.667 0 1.334 1.334 0 0 1 2.667 0z" fill="#0BA14B"/>
    <path d="M75.667 68A1.333 1.333 0 1 1 73 68a1.333 1.333 0 0 1 2.667 0z" fill="#0BA14B"/>
    <path d="M87.667 68A1.333 1.333 0 1 1 85 68a1.333 1.333 0 0 1 2.667 0z" fill="#0BA14B"/>
    <path d="M99.667 68A1.333 1.333 0 1 1 97 68a1.333 1.333 0 0 1 2.667 0z" fill="#0BA14B"/>
    <path d="M111.667 68A1.333 1.333 0 1 1 109 68a1.333 1.333 0 0 1 2.667 0z" fill="#0BA14B"/>
    <path d="M123.667 68A1.333 1.333 0 1 1 121 68a1.333 1.333 0 0 1 2.667 0z" fill="#0BA14B"/>
    <path d="M135.667 68A1.333 1.333 0 1 1 133 68a1.333 1.333 0 0 1 2.667 0z" fill="#0BA14B"/>
    <path fill-rule="evenodd" clip-rule="evenodd" d="M122.167 81.333a1.5 1.5 0 0 1 1.5-1.5h20v3h-20a1.5 1.5 0 0 1-1.5-1.5z" fill="#0BA14B"/>
    <path fill-rule="evenodd" clip-rule="evenodd" d="M59.875 28.5a4.875 4.875 0 1 0 0-9.75 4.875 4.875 0 0 0 0 9.75zm0 3a7.875 7.875 0 1 0 0-15.75 7.875 7.875 0 0 0 0 15.75z" fill="#0BA14B"/>
    <path d="M61.333 24.167a1.5 1.5 0 1 1-3 0 1.5 1.5 0 0 1 3 0z" fill="#0BA14B"/>
    <path fill-rule="evenodd" clip-rule="evenodd" d="M129 22a5 5 0 1 0 0-10 5 5 0 0 0 0 10zm0 3a8 8 0 1 0 0-16 8 8 0 0 0 0 16z" fill="#0BA14B"/>
    <path fill-rule="evenodd" clip-rule="evenodd" d="M97 5.167a1.5 1.5 0 0 1 1.5 1.5v14.666h-3V6.667a1.5 1.5 0 0 1 1.5-1.5z" fill="#0BA14B"/>
    <path fill-rule="evenodd" clip-rule="evenodd" d="M123.5 36V22.083h3V36a2.5 2.5 0 1 0 5 0V22.083h3V36a5.5 5.5 0 1 1-11 0z" fill="#0BA14B"/>
    <path fill-rule="evenodd" clip-rule="evenodd" d="M132.08 40.374l-10.875 11.283a5.464 5.464 0 1 1-7.797-7.654l10.397-10.397 2.122 2.121-10.397 10.397a2.463 2.463 0 1 0 3.515 3.451l10.875-11.283 2.16 2.082z" fill="#0BA14B"/>
    <path fill-rule="evenodd" clip-rule="evenodd" d="M115.394 51.727l-4 4a1.5 1.5 0 1 1-2.121-2.121l4-4 2.121 2.121z" fill="#0BA14B"/>
    <path fill-rule="evenodd" clip-rule="evenodd" d="M85.5 41.953L63.937 20.309l2.126-2.118L88.5 40.714v10.12h-9.432L65.3 37.753l2.067-2.175 12.899 12.254H85.5v-5.88z" fill="#0BA14B"/>
    <path fill-rule="evenodd" clip-rule="evenodd" d="M90.606 55.06l-4.666-4.666 2.12-2.121 4.667 4.666a1.5 1.5 0 0 1-2.12 2.122z" fill="#0BA14B"/>
    <path d="M130.75 17.25a1.5 1.5 0 1 1-3 0 1.5 1.5 0 0 1 3 0z" fill="#0BA14B"/>
    <path fill-rule="evenodd" clip-rule="evenodd" d="M97 17.879l6.833 6.833v5.91l-3.106 3.105a1.5 1.5 0 1 1-2.121-2.121l2.227-2.227v-3.424L97 22.12l-3.834 3.834v3.424l2.228 2.227a1.5 1.5 0 1 1-2.122 2.121l-3.106-3.106v-5.909L97 17.879z" fill="#0BA14B"/>
    <path d="M34.629 42.574v9.176H0c.375-3.469 1.5-6.75 3.375-9.844 1.875-3.117 5.578-7.242 11.11-12.375 4.453-4.148 7.183-6.96 8.19-8.437 1.36-2.04 2.04-4.055 2.04-6.047 0-2.203-.598-3.89-1.793-5.063-1.172-1.195-2.8-1.793-4.887-1.793-2.062 0-3.703.621-4.922 1.864-1.218 1.242-1.922 3.304-2.11 6.187l-9.843-.984C1.746 9.82 3.586 5.918 6.68 3.55 9.773 1.184 13.64 0 18.28 0c5.086 0 9.082 1.371 11.989 4.113 2.906 2.742 4.359 6.153 4.359 10.23 0 2.321-.422 4.536-1.266 6.645-.82 2.086-2.133 4.278-3.937 6.575-1.195 1.523-3.352 3.714-6.469 6.574-3.117 2.86-5.098 4.758-5.941 5.695-.82.938-1.489 1.852-2.004 2.742h19.617z" fill="#0BA14B"/>
</svg>
